Sources/FrostedUI/Resources/Icons.xcassets/timeSkipLeft20.imageset/time-skip-left-20.svg

<svg width="20" height="20" viewBox="0 0 20 20" fill="none" xmlns="http://www.w3.org/2000/svg" data-fui-icon="true">
  <path
    d="M10.0664 2.25C6.80778 2.25009 4.80228 3.95638 3.75 5.80078V4C3.75 3.58579 3.41421 3.25 3 3.25C2.58579 3.25 2.25 3.58579 2.25 4V7.71191C2.2502 8.56519 2.93723 9.26942 3.7998 9.26953H6.5C6.91411 9.26953 7.24984 8.93361 7.25 8.51953C7.25 8.10532 6.91421 7.76953 6.5 7.76953H4.52148C5.06668 5.94381 6.73957 3.75011 10.0664 3.75C13.8746 3.75 16.25 6.59931 16.25 10C16.25 13.4007 13.8746 16.25 10.0664 16.25C7.34804 16.2499 5.17462 14.5217 4.30859 12.46C4.14821 12.0781 3.70807 11.8982 3.32617 12.0586C2.94465 12.2191 2.76563 12.6583 2.92578 13.04C4.00509 15.61 6.69264 17.7499 10.0664 17.75C14.7915 17.75 17.75 14.1378 17.75 10C17.75 5.86223 14.7915 2.25 10.0664 2.25ZM9.75 5.75C9.33579 5.75 9 6.08579 9 6.5V10.5C9 10.7194 9.09604 10.9259 9.25977 11.0674L9.33398 11.124L11.584 12.624C11.9286 12.8538 12.3943 12.7607 12.624 12.416C12.8538 12.0714 12.7607 11.6057 12.416 11.376L10.5 10.0986V6.5C10.5 6.08579 10.1642 5.75 9.75 5.75Z"
    fill="currentColor"
  />
</svg>

<svg xmlns="http://www.w3.org/2000/svg" width="20" height="20" fill="none" data-fui-icon="true" viewBox="0 0 20 20"><path fill="currentColor" d="M10.066 2.25c-3.258 0-5.264 1.706-6.316 3.55V4a.75.75 0 0 0-1.5 0v3.712c0 .853.687 1.557 1.55 1.558h2.7a.75.75 0 0 0 0-1.5H4.521c.546-1.826 2.219-4.02 5.545-4.02 3.809 0 6.184 2.85 6.184 6.25s-2.375 6.25-6.184 6.25c-2.718 0-4.891-1.728-5.757-3.79a.75.75 0 0 0-1.383.58c1.08 2.57 3.767 4.71 7.14 4.71 4.725 0 7.684-3.612 7.684-7.75s-2.959-7.75-7.684-7.75m-.316 3.5A.75.75 0 0 0 9 6.5v4c0 .22.096.426.26.567l.074.057 2.25 1.5a.75.75 0 1 0 .832-1.248L10.5 10.099V6.5a.75.75 0 0 0-.75-.75"/></svg>
